X: 64
T:Harvest Home
M:C|
L:1/8
R:hornpipe
H:One of the most common session tunes. Often played w "The Boys of
H:Bluehill"
Z:id:hn-hornpipe-44
K:D
|:AF|DAFA DAFA|dfec dcBA|(3efg (3fga (3gfe (3fed|edcB AGFE|
DAFA DAFA|dfec dcBA|(3efg (3fga gece|d2f2 d2:|
|:cd|eA~A2 fA~A2|gAfA eA~A2|(3efg (3fga (3gfe (3fed|edcB AGFE|
DAFA DAFA|dfec dcBA|(3efg (3fga gece|d2f2 d2:|

